X: 6632
T: Caves Of Kiltanon, The
R: jig
M: 6/8
K: Adorian
A2 G|:EAB c2 d|eag edB|cEe dcB|cEA GED|
EAB c2 d|eag edB|cEe dcB|1 cEG A2 G:|2 cEG A2 E||
Aab c'ba|bge dcB|cEe dcB|cBA BGE|
Aab c'ba|bge dcd|ec'b age|aeg ~a3|
eab c'ba|bge dcB|cEe dcB|cBA BGE|
cec ~d3|ec'b age|cEe dcB|cEG A2 B|
|:cAe cAe|BGd BGB|cAe cAc|ebg ~a3|
c'ba bag|age dcB|cEe dcB|cEG A2 B:|

